public/imgs/tech/html5_css3_styling.svg

<svg xmlns="http://www.w3.org/2000/svg" viewBox="0 0 220.5 199.5"><path d="M32.8 0l-7.4 37H176l-4.7 23.9H20.6l-7.3 37h150.6l-8.4 42.2-60.7 20.1-52.6-20.1 3.6-18.3h-37L0 166.2l87 33.3 100.3-33.3 13.3-66.8 2.7-13.4 17.1-86z"/></svg>

<svg xmlns="http://www.w3.org/2000/svg" viewBox="0 0 220.5 199.5">
  <title>HTML5 CSS Styling Logo</title>
  <path d="M32.8,0L25.4,37.0 176.0,37.0 171.3,60.9 20.6,60.9 13.3,97.9 163.9,97.9 155.5,140.1 94.8,160.2 42.2,140.1 45.8,121.8 8.8,121.8 0,166.2 87.0,199.5 187.3,166.2 200.6,99.4 203.3,86.0 220.4,0z"/>
</svg>
